X: 1
T:Queen of Club's -- Reel
M:C|
L:1/8
R:reel
B:Ryan's Mammoth Collection
N:225
Z:Contributed by Ray Davies,  ray:davies99.freeserve.co.uk
K:G
uD2"^Segno"|\
G2(GB) AGED | cBce dcBd | cBAc BAGB | AGFA GDB,D |
G2GB AGE2 | {d}cBce dcBd | cBAc BAGB | AGFA G2:|
(Bd)|\
g2(fg) egdf | gbag fdef | g2(fg) egdB | cedf g2d2 |
g2(fg) eg(df) | gbag fdef | gbaf gfed | eg(fa) gedB "^Segno"|]
